src/assets/Card4.svg

<svg width="80" height="80" viewBox="0 0 80 80" fill="none" xmlns="http://www.w3.org/2000/svg">
<path fill-rule="evenodd" clip-rule="evenodd" d="M40.0004 5C38.3071 5 36.6121 5.12167 34.9321 5.36833C34.2871 5.46333 33.7587 5.925 33.5754 6.55L32.2687 11.0117C29.7137 11.6933 27.2571 12.7133 24.9671 14.04L20.8921 11.8033C20.3204 11.49 19.6187 11.5383 19.0954 11.9267C16.3721 13.955 13.9554 16.3717 11.9271 19.095C11.5387 19.6183 11.4904 20.32 11.8037 20.8917L14.0404 24.9667C12.7137 27.2567 11.6937 29.7133 11.0121 32.2717C11.0121 32.27 6.55042 33.575 6.55042 33.575C5.92542 33.7583 5.46375 34.2867 5.36875 34.9317C4.87708 38.2933 4.87708 41.7067 5.36875 45.0683C5.46375 45.7133 5.92542 46.2417 6.55042 46.425L11.0121 47.7317C11.6937 50.2867 12.7137 52.7433 14.0404 55.0333L11.8037 59.1083C11.4904 59.68 11.5387 60.3817 11.9271 60.905C13.9554 63.6283 16.3721 66.045 19.0954 68.0733C19.6187 68.4617 20.3204 68.51 20.8921 68.1967L24.9671 65.96C27.2571 67.2867 29.7137 68.3067 32.2721 68.9883C32.2704 68.9883 33.5754 73.45 33.5754 73.45C33.7587 74.075 34.2871 74.5367 34.9321 74.6317C38.2937 75.1233 41.7071 75.1233 45.0687 74.6317C45.7137 74.5367 46.2421 74.075 46.4254 73.45L47.7321 68.9883C50.2871 68.3067 52.7437 67.2867 55.0337 65.96L59.1087 68.1967C59.6804 68.51 60.3821 68.4617 60.9054 68.0733C63.6287 66.045 66.0454 63.6283 68.0737 60.905C68.4621 60.3817 68.5104 59.68 68.1971 59.1083L65.9604 55.0333C67.2871 52.7433 68.3071 50.2867 68.9888 47.7283C68.9888 47.73 73.4504 46.425 73.4504 46.425C74.0754 46.2417 74.5371 45.7133 74.6321 45.0683C75.1237 41.7067 75.1237 38.2933 74.6321 34.9317C74.5371 34.2867 74.0754 33.7583 73.4504 33.575L68.9888 32.2683C68.3071 29.7133 67.2871 27.2567 65.9604 24.9667L68.1971 20.8917C68.5104 20.32 68.4621 19.6183 68.0737 19.095C66.0454 16.3717 63.6287 13.955 60.9054 11.9267C60.3821 11.5383 59.6804 11.49 59.1087 11.8033L55.0337 14.04C52.7437 12.7133 50.2871 11.6933 47.7287 11.0117C47.7304 11.0117 46.4254 6.55 46.4254 6.55C46.2421 5.925 45.7137 5.46333 45.0687 5.36833C43.3887 5.12167 41.6937 5 40.0004 5ZM40.0004 8.33333C41.1787 8.33333 42.3587 8.4 43.5321 8.53167L44.7987 12.865C44.9671 13.4433 45.4354 13.885 46.0221 14.02C48.8854 14.6833 51.6187 15.8183 54.1121 17.3733C54.6237 17.6917 55.2671 17.7083 55.7954 17.4183L59.7571 15.25C61.6021 16.7233 63.2787 18.3983 64.7504 20.2433C64.7521 20.2433 62.5821 24.205 62.5821 24.205C62.2921 24.7333 62.3087 25.3767 62.6271 25.8883C64.1821 28.3817 65.3171 31.115 65.9804 33.9783C66.1154 34.565 66.5571 35.0333 67.1354 35.2017L71.4688 36.4683C71.7337 38.815 71.7337 41.185 71.4688 43.5317L67.1354 44.7983C66.5571 44.9667 66.1154 45.435 65.9804 46.0217C65.3171 48.885 64.1821 51.6183 62.6271 54.1117C62.3087 54.6233 62.2921 55.2667 62.5821 55.795L64.7504 59.7567C63.2771 61.6017 61.6021 63.2783 59.7571 64.75C59.7571 64.7517 55.7954 62.5817 55.7954 62.5817C55.2671 62.2917 54.6237 62.3083 54.1121 62.6267C51.6187 64.1817 48.8854 65.3167 46.0221 65.98C45.4354 66.115 44.9671 66.5567 44.7987 67.135L43.5321 71.4683C41.1854 71.7333 38.8154 71.7333 36.4687 71.4683L35.2021 67.135C35.0337 66.5567 34.5654 66.115 33.9787 65.98C31.1154 65.3167 28.3821 64.1817 25.8887 62.6267C25.3771 62.3083 24.7337 62.2917 24.2054 62.5817L20.2437 64.75C18.3987 63.2767 16.7221 61.6017 15.2504 59.7567C15.2487 59.7567 17.4187 55.795 17.4187 55.795C17.7087 55.2667 17.6921 54.6233 17.3737 54.1117C15.8187 51.6183 14.6837 48.885 14.0204 46.0217C13.8854 45.435 13.4437 44.9667 12.8654 44.7983L8.53208 43.5317C8.26708 41.185 8.26708 38.815 8.53208 36.4683L12.8654 35.2017C13.4437 35.0333 13.8854 34.565 14.0204 33.9783C14.6837 31.115 15.8187 28.3817 17.3737 25.8883C17.6921 25.3767 17.7087 24.7333 17.4187 24.205L15.2504 20.2433C16.7237 18.3983 18.3987 16.7217 20.2437 15.25C20.2437 15.2483 24.2054 17.4183 24.2054 17.4183C24.7337 17.7083 25.3771 17.6917 25.8887 17.3733C28.3821 15.8183 31.1154 14.6833 33.9787 14.02C34.5654 13.885 35.0337 13.4433 35.2021 12.865L36.4687 8.53167C37.6421 8.4 38.8221 8.33333 40.0004 8.33333ZM40.0004 16.6667C27.1221 16.6667 16.6671 27.1217 16.6671 40C16.6671 52.8783 27.1221 63.3333 40.0004 63.3333C52.8787 63.3333 63.3337 52.8783 63.3337 40C63.3337 27.1217 52.8787 16.6667 40.0004 16.6667ZM40.0004 20C51.0387 20 60.0004 28.9617 60.0004 40C60.0004 51.0383 51.0387 60 40.0004 60C28.9621 60 20.0004 51.0383 20.0004 40C20.0004 28.9617 28.9621 20 40.0004 20ZM47.5654 32.5C47.0304 32.4783 46.4954 32.7167 46.1554 33.18L38.5654 43.5117L33.4771 39.8183C32.7337 39.2767 31.6887 39.4417 31.1487 40.185C30.6071 40.93 30.7771 41.975 31.5204 42.5167L37.9471 47.1817C38.6871 47.72 39.7271 47.56 40.2704 46.82L48.8421 35.1533C49.3854 34.4117 49.2254 33.3683 48.4871 32.8217C48.2087 32.6183 47.8871 32.5133 47.5654 32.5Z" fill="black"/>
</svg>

<svg xmlns="http://www.w3.org/2000/svg" width="80" height="80" fill="none" viewBox="0 0 80 80"><path fill="#000" fill-rule="evenodd" d="M40 5a35 35 0 0 0-5.068.368 1.67 1.67 0 0 0-1.357 1.182l-1.306 4.462a30 30 0 0 0-7.302 3.028l-4.075-2.237a1.67 1.67 0 0 0-1.797.124 35 35 0 0 0-7.168 7.168 1.67 1.67 0 0 0-.123 1.797l2.236 4.075a30 30 0 0 0-3.028 7.305c0-.002-4.462 1.303-4.462 1.303a1.67 1.67 0 0 0-1.181 1.357 35 35 0 0 0 0 10.136 1.67 1.67 0 0 0 1.181 1.357l4.462 1.307a30 30 0 0 0 3.028 7.301l-2.236 4.075a1.67 1.67 0 0 0 .123 1.797 35 35 0 0 0 7.168 7.168 1.67 1.67 0 0 0 1.797.124l4.075-2.237a30 30 0 0 0 7.305 3.028c-.002 0 1.303 4.462 1.303 4.462a1.67 1.67 0 0 0 1.357 1.182 35 35 0 0 0 10.137 0 1.67 1.67 0 0 0 1.356-1.182l1.307-4.462a30 30 0 0 0 7.302-3.028l4.075 2.237a1.67 1.67 0 0 0 1.796-.124 35 35 0 0 0 7.169-7.168 1.67 1.67 0 0 0 .123-1.797l-2.237-4.075a30 30 0 0 0 3.029-7.305c0 .002 4.461-1.303 4.461-1.303a1.67 1.67 0 0 0 1.182-1.357 35 35 0 0 0 0-10.136 1.67 1.67 0 0 0-1.182-1.357l-4.461-1.307a30 30 0 0 0-3.029-7.301l2.237-4.075a1.67 1.67 0 0 0-.123-1.797 35 35 0 0 0-7.169-7.168 1.67 1.67 0 0 0-1.796-.124l-4.075 2.237a30 30 0 0 0-7.305-3.028L46.425 6.55a1.67 1.67 0 0 0-1.356-1.182A35 35 0 0 0 40 5m0 3.333c1.179 0 2.359.067 3.532.199l1.267 4.333c.168.578.636 1.02 1.223 1.155a26.7 26.7 0 0 1 8.09 3.353 1.67 1.67 0 0 0 1.683.045l3.962-2.168a31.7 31.7 0 0 1 4.993 4.993c.002 0-2.168 3.962-2.168 3.962a1.67 1.67 0 0 0 .045 1.683 26.7 26.7 0 0 1 3.353 8.09 1.66 1.66 0 0 0 1.155 1.224l4.334 1.266a31.5 31.5 0 0 1 0 7.064l-4.334 1.266a1.66 1.66 0 0 0-1.155 1.224 26.7 26.7 0 0 1-3.353 8.09 1.67 1.67 0 0 0-.045 1.683l2.168 3.962a31.7 31.7 0 0 1-4.993 4.993c0 .002-3.962-2.168-3.962-2.168a1.67 1.67 0 0 0-1.683.045 26.7 26.7 0 0 1-8.09 3.353 1.66 1.66 0 0 0-1.223 1.155l-1.267 4.333a31.5 31.5 0 0 1-7.063 0l-1.267-4.333a1.66 1.66 0 0 0-1.223-1.155 26.7 26.7 0 0 1-8.09-3.353 1.67 1.67 0 0 0-1.684-.045l-3.961 2.168a31.7 31.7 0 0 1-4.994-4.993l2.169-3.962a1.67 1.67 0 0 0-.045-1.683 26.7 26.7 0 0 1-3.354-8.09 1.66 1.66 0 0 0-1.155-1.224l-4.333-1.266a31.5 31.5 0 0 1 0-7.064l4.333-1.266a1.66 1.66 0 0 0 1.155-1.224 26.7 26.7 0 0 1 3.354-8.09 1.67 1.67 0 0 0 .045-1.683l-2.169-3.962a31.7 31.7 0 0 1 4.994-4.993c0-.002 3.961 2.168 3.961 2.168.529.29 1.172.274 1.684-.045a26.7 26.7 0 0 1 8.09-3.353 1.66 1.66 0 0 0 1.223-1.155l1.267-4.333A32 32 0 0 1 40 8.333m0 8.334c-12.878 0-23.333 10.455-23.333 23.333S27.122 63.333 40 63.333c12.879 0 23.334-10.455 23.334-23.333S52.879 16.667 40 16.667M40 20c11.039 0 20 8.962 20 20S51.04 60 40 60s-20-8.962-20-20 8.962-20 20-20m7.565 12.5a1.66 1.66 0 0 0-1.41.68l-7.59 10.332-5.088-3.694a1.67 1.67 0 0 0-2.328.367 1.67 1.67 0 0 0 .371 2.332l6.427 4.665c.74.538 1.78.378 2.323-.362l8.572-11.667a1.673 1.673 0 0 0-.355-2.331 1.68 1.68 0 0 0-.922-.322" clip-rule="evenodd"/></svg>
